X: 649
T: Sheep and Hogs Walking Through the Pasture
B: jims roots
M:C|
L:1/8
Q: 1/4=100
K:G
V:1 
%N:Drones constantly throughout 1st strain, as in the first line.
%D:Round 0032, Buddy Thomas &#8211; Kitty Puss (1976)
%F:http://www.slippery-hill.com/recording/sheep-and-hogs-walking-through-pasture
"G"[D2d2]d2 A2d2 | BcBG DGAB | d2Bd A2 dc | "D"BGAF "G"G2Ad ||
"G"Bdef g2eg | "D"fedf edBA | "C"B+slide+[e2e2](f [e2e2])d2 | "D"BGAG "G"(EG)GA |
"G"Bdef g2g2 | "D"fgfd edBA | "C"B+slide+[e2e2](f [e2e2])d2 | "D"BGAG "G"(EG)GA ||
"G"D2 [DB]G [D3A3]d | "D"([DB]A)GB [DA]G[DA]B | "C"[D2d2][DB]d [D2A2][Dd]c | "D"[DB]G[DA]G "G"(EG)GA |
"G"[D2d2][DB]G [D2A2]dc | "D"([DB]A)[DB]G [DA]G[DA]B | "C"[D2d2][DB]d [D2A2][Dd]c | "D"[DB]G[DA]G "G"G2 ||
V:DB 
-[Dc]- | "G"[D2d2][D2d2][D2A2][D2d2] | [DB]A[DB]G DG[DA]B | [D2d2][DB][Dd] [D2A2][Dd][Dc] | "D"[DB]G[DA]F "G"G2[DB]-[Dc]- |
% abcbook-tune_id 6298c25dc25120fe1b15f31e


% abcbook-boost 0
% abcbook-tablature 
% abcbook-transpose 
% abcbook-lastupdated 1654178398782
% abcbook-soundfonts 
% abcbook-repeats 1


